X: 6633
T: Caves Of Kiltanon, The
R: jig
M: 6/8
K: Gmixolydian
GF|:DGA (A_B) c|dgf dcA|_BDd c=BA|BAG FDC|
DGA (A_B) c|dgf dcA|_BDd c=BA|1 BDF G2 F:|2 BDF G2 D||
Gga bag|a^fd ~cBA|BDd cBA|BAG AFD|
Gga bag|a^fd ~cBc|dba g^fd|gd^f ~g3||
dga bag|a^fd ~cBA|BDd cBA|BAG AFD|
BDB ~cBc|dba gfd|BDd cBA|BDF G2 A||
_BGd BGd|AFc AFA|_BGd BGB|da^f ~g3|
_bag ag^f|g^fd cBA|BDd cBA|BDF G2 A|
_BGd BGd|AFc AFA|_BGd =BGB|daf ~g3|
_bag ag^f|dgf dcA|BDd cBA|BDF G2 F||

